X: 42097
T: Wandering Musician, The
R: jig
M: 6/8
K: Gmajor
D|B2c dBG|c2d ecA|B2c dBG|FAF DGA|
B2c dBG|c2d ecA|fed cBA|DEF G2:|
|:c|BAG dcB|gfe dcB|cBA cec|afd cBA|
BAG dBG|DGF G/A/Bd|gdB ecA|FAF DGA|
B2c dBG|c2d ecA|B2c dBG|FAF DGA|
B2c dBG|c2d ecA|fed cBA|DEF G2:|

